X: 4288
M: C|
L: 1/8
K: G
(3(DEF) |\
[1,3 Bdgf edcB | AGFE DcBA :|\
[2,4 BdBG AcAF | G2B2"_D.C."G2 |:\
d2 |\
g2(gf) gbag |
f2d2 d2(de) |\
=fefg fagf | e2c2 c2(dc) |\


